X:2103
T:Frost is all over, The
O:england
M:6/8
L:1/8
R:jig
K:D
c|:def edc|dAF GFE|DFA DFA|~B3 edc|
d2f edc|dAF GFE|DFA DFA|1Bdc d2A:|2Bdc d2e||
~f3 afd|~g3 bag|~f3 afd|gfg efg|
~f3 afd|~g3 bag|f/2g/2af ede|fdc d2e|
~f3 afd|~g3 bag|~f3 afd|gfg efg|
faf ede|fdB AFA|Bcd efg|f2f gfe||


